svg/N_Arrows/26.svg

<svg xmlns="http://www.w3.org/2000/svg" viewBox="0 0 744.09 1052.36" xmlns:xlink="http://www.w3.org/1999/xlink"><defs><path id="0" d="m315 327.36l10-1.429v-18.887l-10 20.316z" stroke="#000" fill-rule="evenodd" fill="none" stroke-width=".5"/><path id="1" d="m321.43 270.93h68.57v74.28h-68.57z"/></defs><g font-family="Arial Black" font-size="56"><flowRoot transform="translate(222.35 140.06)"><flowRegion><use xlink:href="#1"/></flowRegion><flowPara>E</flowPara></flowRoot><flowRoot transform="translate(63.705 300.79)"><flowRegion><use xlink:href="#1"/></flowRegion><flowPara>S</flowPara></flowRoot><flowRoot transform="translate(59.764-16.518)"><flowRegion><use xlink:href="#1"/></flowRegion><flowPara>N</flowPara></flowRoot><flowRoot transform="translate(-113.69 138.33)"><flowRegion><use xlink:href="#1"/></flowRegion><flowPara>W</flowPara></flowRoot></g><g transform="matrix(.31174 0 0 .30221 279.8 284.79)"><g transform="matrix(.78186 0 0 .76688 63.84 141.99)"><path d="m398.25 383.31c16.14-5.842 32.53-8.841 50 0l-22.619-43.789-27.381 43.789" fill-rule="evenodd"/><g><g transform="matrix(.58786 0 0 .55283 146.44 243.03)" stroke="#000" stroke-linecap="square" stroke-width="15.02"><path transform="matrix(3.2602 0 0 3.30598-784.4-1182.11)" d="M418.57143 483.79074A30.714285 30.714285 0 1 1 357.14286 483.79074 30.714285 30.714285 0 1 1 418.57143 483.79074z" opacity=".97" fill="none"/><path transform="matrix(1.39855 0 0 1.44983 66.71-405.22)" d="M322.85714 567.36218A27.857143 27.857143 0 1 1 267.14286 567.36218 27.857143 27.857143 0 1 1 322.85714 567.36218z" opacity=".97"/></g><path d="m336.44 500.52c-5.842-16.14-8.841-32.53 0-50l-43.789 22.619 43.789 27.381" fill-rule="evenodd"/><path d="M483.35799 632.6438A75.25636 75.25636 0 1 1 332.84526 632.6438 75.25636 75.25636 0 1 1 483.35799 632.6438z" transform="matrix(1.1994 0 0 1.17591-60.3-269.88)" opacity=".97" fill="none" stroke="#000" stroke-linecap="square" stroke-width="15.02"/><g fill-rule="evenodd"><path d="m522.07 449.55c5.842 16.14 8.841 32.53 0 50l43.789-22.619-43.789-27.381"/><path d="m507.44 423.87c-7.278-15.541-16.751-29.25-35.36-35.36l46.958-14.97-11.602 50.33"/><path d="m453.81 565.29c-16.14 5.842-32.53 8.841-50 0l22.619 43.789 27.381-43.789"/><path d="m342.69 430.02c7.278-15.541 16.751-29.25 35.36-35.36l-46.958-14.97 11.602 50.33"/><path d="m476.88 556.72c15.541-7.278 29.25-16.751 35.36-35.36l14.97 46.958-50.33-11.602"/><path d="m347.23 522.36c7.278 15.541 16.751 29.25 35.36 35.36l-46.958 14.97 11.602-50.33"/></g></g></g><path d="M783.87836 426.57269A101.52033 97.47972 0 1 1 580.8377 426.57269 101.52033 97.47972 0 1 1 783.87836 426.57269z" transform="matrix(1.11255 0 0 1.10103-360.55 35.15)" opacity=".97" fill="none" stroke="#000" stroke-linecap="square" stroke-width="23.847"/></g><g transform="matrix(2.83693 0 0 5.39053-517.66-1354.96)"><use xlink:href="#0"/><path d="m335.11 327.72l-10.536-1.964.368-18.973 10.168 20.937" fill-rule="evenodd"/></g><g transform="matrix(0-2.83693 5.39053 0-1387.85 1358.04)"><use xlink:href="#0"/><path d="m335.11 327.72l-10.536-1.964.368-18.973 10.168 20.937" fill-rule="evenodd" id="2"/></g><g transform="matrix(-2.83693 0 0-5.39053 1326.74 2228.14)"><use xlink:href="#0"/><path d="m335.11 327.72l-10-1.777-.166-19.16 10.168 20.937" fill-rule="evenodd"/></g><g transform="matrix(0 2.83693-5.39053 0 2197.01-483.67)"><use xlink:href="#0"/><use xlink:href="#2"/></g></svg>

<?xml version="1.0" encoding="UTF-8" standalone="no"?>
<!-- Created with Inkscape (http://www.inkscape.org/) -->
<svg
   xmlns:dc="http://purl.org/dc/elements/1.1/"
   xmlns:cc="http://web.resource.org/cc/"
   xmlns:rdf="http://www.w3.org/1999/02/22-rdf-syntax-ns#"
   xmlns:svg="http://www.w3.org/2000/svg"
   xmlns="http://www.w3.org/2000/svg"
   xmlns:sodipodi="http://sodipodi.sourceforge.net/DTD/sodipodi-0.dtd"
   xmlns:inkscape="http://www.inkscape.org/namespaces/inkscape"
   width="744.09448819"
   height="1052.3622047"
   id="svg2"
   sodipodi:version="0.32"
   inkscape:version="0.44.1"
   sodipodi:docbase="F:\QGIS_N_ARROWS\TOT"
   sodipodi:docname="FINALE.svg"
   inkscape:export-filename="F:\QGIS_N_ARROWS\TOT\FINALE.png"
   inkscape:export-xdpi="300"
   inkscape:export-ydpi="300">
  <defs
     id="defs4" />
  <sodipodi:namedview
     id="base"
     pagecolor="#ffffff"
     bordercolor="#666666"
     borderopacity="1.0"
     inkscape:pageopacity="0.0"
     inkscape:pageshadow="2"
     inkscape:zoom="0.49497475"
     inkscape:cx="339.46429"
     inkscape:cy="611.13854"
     inkscape:document-units="px"
     inkscape:current-layer="layer1"
     showgrid="true"
     inkscape:window-width="1280"
     inkscape:window-height="744"
     inkscape:window-x="-4"
     inkscape:window-y="-4" />
  <metadata
     id="metadata7">
    <rdf:RDF>
      <cc:Work
         rdf:about="">
        <dc:format>image/svg+xml</dc:format>
        <dc:type
           rdf:resource="http://purl.org/dc/dcmitype/StillImage" />
      </cc:Work>
    </rdf:RDF>
  </metadata>
  <g
     inkscape:label="Livello 1"
     inkscape:groupmode="layer"
     id="layer1">
    <g
       id="g5150">
      <flowRoot
         transform="translate(222.3454,140.0558)"
         style="font-size:56px;font-family:Arial Black"
         id="flowRoot2029"
         xml:space="preserve"><flowRegion
           id="flowRegion2031"><rect
             style="font-size:56px;font-family:Arial Black"
             y="270.93362"
             x="321.42856"
             height="74.285713"
             width="68.571426"
             id="rect2033" /></flowRegion><flowPara
           id="flowPara2035">E</flowPara></flowRoot>      <flowRoot
         transform="translate(63.70477,300.7926)"
         style="font-size:56px;font-family:Arial Black"
         id="flowRoot2037"
         xml:space="preserve"><flowRegion
           id="flowRegion2039"><rect
             style="font-size:56px;font-family:Arial Black"
             y="270.93362"
             x="321.42856"
             height="74.285713"
             width="68.571426"
             id="rect2041" /></flowRegion><flowPara
           id="flowPara2043">S</flowPara></flowRoot>      <flowRoot
         transform="translate(59.76398,-16.51779)"
         style="font-size:56px;font-family:Arial Black"
         id="flowRoot2045"
         xml:space="preserve"><flowRegion
           id="flowRegion2047"><rect
             style="font-size:56px;font-family:Arial Black"
             y="270.93362"
             x="321.42856"
             height="74.285713"
             width="68.571426"
             id="rect2049" /></flowRegion><flowPara
           id="flowPara2051">N</flowPara></flowRoot>      <flowRoot
         transform="translate(-113.6901,138.3315)"
         style="font-size:56px;font-family:Arial Black"
         id="flowRoot2053"
         xml:space="preserve"><flowRegion
           id="flowRegion2055"><rect
             style="font-size:56px;font-family:Arial Black"
             y="270.93362"
             x="321.42856"
             height="74.285713"
             width="68.571426"
             id="rect2057" /></flowRegion><flowPara
           id="flowPara2059">W</flowPara></flowRoot>      <g
         transform="matrix(0.311736,0,0,0.302213,279.8002,284.787)"
         id="g3222">
        <g
           id="g3205"
           transform="matrix(0.781857,0,0,0.766882,63.83974,141.9881)">
          <path
             sodipodi:nodetypes="cccc"
             id="path3178"
             d="M 398.25392,383.31251 C 414.38946,377.47009 430.78354,374.47169 448.25392,383.31251 L 425.63489,339.52316 L 398.25392,383.31251 z "
             style="fill:black;fill-opacity:1;fill-rule:evenodd;stroke:none;stroke-width:1px;stroke-linecap:butt;stroke-linejoin:miter;stroke-opacity:1" />
          <g
             id="g3192">
            <g
               id="g3166"
               transform="matrix(0.587863,0,0,0.552833,146.4351,243.0267)">
              <path
                 transform="matrix(3.260196,0,0,3.305983,-784.3987,-1182.114)"
                 d="M 418.57143 483.79074 A 30.714285 30.714285 0 1 1  357.14286,483.79074 A 30.714285 30.714285 0 1 1  418.57143 483.79074 z"
                 sodipodi:ry="30.714285"
                 sodipodi:rx="30.714285"
                 sodipodi:cy="483.79074"
                 sodipodi:cx="387.85715"
                 id="path2270"
                 style="opacity:0.97000002;fill:none;fill-opacity:1;stroke:black;stroke-width:15.0170002;stroke-linecap:square;stroke-linejoin:miter;stroke-miterlimit:4;stroke-dasharray:none;stroke-opacity:1"
                 sodipodi:type="arc" />
              <path
                 transform="matrix(1.398549,0,0,1.449831,66.71392,-405.2167)"
                 d="M 322.85714 567.36218 A 27.857143 27.857143 0 1 1  267.14286,567.36218 A 27.857143 27.857143 0 1 1  322.85714 567.36218 z"
                 sodipodi:ry="27.857143"
                 sodipodi:rx="27.857143"
                 sodipodi:cy="567.36218"
                 sodipodi:cx="295"
                 id="path3164"
                 style="opacity:0.97000002;fill:black;fill-opacity:1;stroke:black;stroke-width:15.0170002;stroke-linecap:square;stroke-linejoin:miter;stroke-miterlimit:4;stroke-dasharray:none;stroke-opacity:1"
                 sodipodi:type="arc" />
            </g>
            <path
               style="fill:black;fill-opacity:1;fill-rule:evenodd;stroke:none;stroke-width:1px;stroke-linecap:butt;stroke-linejoin:miter;stroke-opacity:1"
               d="M 336.44036,500.51572 C 330.59794,484.38018 327.59954,467.9861 336.44036,450.51572 L 292.65101,473.13475 L 336.44036,500.51572 z "
               id="path3174"
               sodipodi:nodetypes="cccc" />
            <path
               sodipodi:type="arc"
               style="opacity:0.97000002;fill:none;fill-opacity:1;stroke:black;stroke-width:15.0170002;stroke-linecap:square;stroke-linejoin:miter;stroke-miterlimit:4;stroke-dasharray:none;stroke-opacity:1"
               id="path3176"
               sodipodi:cx="408.10162"
               sodipodi:cy="632.6438"
               sodipodi:rx="75.256363"
               sodipodi:ry="75.256363"
               d="M 483.35799 632.6438 A 75.256363 75.256363 0 1 1  332.84526,632.6438 A 75.256363 75.256363 0 1 1  483.35799 632.6438 z"
               transform="matrix(1.199403,0,0,1.175914,-60.29851,-269.8845)" />
            <path
               style="fill:black;fill-opacity:1;fill-rule:evenodd;stroke:none;stroke-width:1px;stroke-linecap:butt;stroke-linejoin:miter;stroke-opacity:1"
               d="M 522.07247,449.55493 C 527.9149,465.69047 530.9133,482.08455 522.07247,499.55493 L 565.86183,476.93589 L 522.07247,449.55493 z "
               id="path3180"
               sodipodi:nodetypes="cccc" />
            <path
               style="fill:black;fill-opacity:1;fill-rule:evenodd;stroke:none;stroke-width:1px;stroke-linecap:butt;stroke-linejoin:miter;stroke-opacity:1"
               d="M 507.44045,423.87181 C 500.16211,408.33104 490.68994,394.61849 472.08511,388.51647 L 519.04292,373.54679 L 507.44045,423.87181 z "
               id="path3182"
               sodipodi:nodetypes="cccc" />
            <path
               style="fill:black;fill-opacity:1;fill-rule:evenodd;stroke:none;stroke-width:1px;stroke-linecap:butt;stroke-linejoin:miter;stroke-opacity:1"
               d="M 453.80976,565.29225 C 437.67422,571.13466 421.28013,574.13307 403.80976,565.29225 L 426.42877,609.0816 L 453.80976,565.29225 z "
               id="path3184"
               sodipodi:nodetypes="cccc" />
            <path
               style="fill:black;fill-opacity:1;fill-rule:evenodd;stroke:none;stroke-width:1px;stroke-linecap:butt;stroke-linejoin:miter;stroke-opacity:1"
               d="M 342.68712,430.01692 C 349.96546,414.47613 359.43763,400.76359 378.04246,394.66156 L 331.08465,379.6919 L 342.68712,430.01692 z "
               id="path3186"
               sodipodi:nodetypes="cccc" />
            <path
               style="fill:black;fill-opacity:1;fill-rule:evenodd;stroke:none;stroke-width:1px;stroke-linecap:butt;stroke-linejoin:miter;stroke-opacity:1"
               d="M 476.88331,556.71909 C 492.42407,549.44075 506.13662,539.96858 512.23864,521.36375 L 527.20833,568.32157 L 476.88331,556.71909 z "
               id="path3188"
               sodipodi:nodetypes="cccc" />
            <path
               style="fill:black;fill-opacity:1;fill-rule:evenodd;stroke:none;stroke-width:1px;stroke-linecap:butt;stroke-linejoin:miter;stroke-opacity:1"
               d="M 347.2328,522.36218 C 354.51114,537.90294 363.98331,551.61549 382.58814,557.71751 L 335.63032,572.6872 L 347.2328,522.36218 z "
               id="path3190"
               sodipodi:nodetypes="cccc" />
          </g>
        </g>
        <path
           sodipodi:type="arc"
           style="opacity:0.97000002;fill:none;fill-opacity:1;stroke:black;stroke-width:23.84678446;stroke-linecap:square;stroke-linejoin:miter;stroke-miterlimit:4;stroke-dasharray:none;stroke-opacity:1"
           id="path3220"
           sodipodi:cx="682.35803"
           sodipodi:cy="426.57269"
           sodipodi:rx="101.52033"
           sodipodi:ry="97.479721"
           d="M 783.87836 426.57269 A 101.52033 97.479721 0 1 1  580.8377,426.57269 A 101.52033 97.479721 0 1 1  783.87836 426.57269 z"
           transform="matrix(1.112549,0,0,1.101028,-360.5463,35.14687)" />
      </g>
      <g
         transform="matrix(2.836932,0,0,5.390526,-517.6559,-1354.956)"
         id="g4168">
        <path
           style="fill:none;fill-rule:evenodd;stroke:black;stroke-width:0.5;stroke-linecap:butt;stroke-linejoin:miter;stroke-miterlimit:4;stroke-dasharray:none;stroke-opacity:1"
           d="M 315,327.36218 L 325,325.93361 L 325,307.04651 L 315,327.36218 z "
           id="path3279"
           sodipodi:nodetypes="cccc" />
        <path
           style="fill:black;fill-opacity:1;fill-rule:evenodd;stroke:none;stroke-width:0.5;stroke-linecap:butt;stroke-linejoin:miter;stroke-miterlimit:4;stroke-dasharray:none;stroke-opacity:1"
           d="M 335.10714,327.71933 L 324.57143,325.75504 L 324.9394,306.78246 L 335.10714,327.71933 z "
           id="path4166"
           sodipodi:nodetypes="cccc" />
      </g>
      <g
         transform="matrix(0,-2.836932,5.390526,0,-1387.849,1358.038)"
         id="g4172">
        <path
           style="fill:none;fill-rule:evenodd;stroke:black;stroke-width:0.5;stroke-linecap:butt;stroke-linejoin:miter;stroke-miterlimit:4;stroke-dasharray:none;stroke-opacity:1"
           d="M 315,327.36218 L 325,325.93361 L 325,307.04651 L 315,327.36218 z "
           id="path4174"
           sodipodi:nodetypes="cccc" />
        <path
           style="fill:black;fill-opacity:1;fill-rule:evenodd;stroke:none;stroke-width:0.5;stroke-linecap:butt;stroke-linejoin:miter;stroke-miterlimit:4;stroke-dasharray:none;stroke-opacity:1"
           d="M 335.10714,327.71933 L 324.57143,325.75504 L 324.9394,306.78246 L 335.10714,327.71933 z "
           id="path4176"
           sodipodi:nodetypes="cccc" />
      </g>
      <g
         transform="matrix(-2.836932,0,0,-5.390526,1326.737,2228.14)"
         id="g4178">
        <path
           style="fill:none;fill-rule:evenodd;stroke:black;stroke-width:0.5;stroke-linecap:butt;stroke-linejoin:miter;stroke-miterlimit:4;stroke-dasharray:none;stroke-opacity:1"
           d="M 315,327.36218 L 325,325.93361 L 325,307.04651 L 315,327.36218 z "
           id="path4180"
           sodipodi:nodetypes="cccc" />
        <path
           style="fill:black;fill-opacity:1;fill-rule:evenodd;stroke:none;stroke-width:0.5;stroke-linecap:butt;stroke-linejoin:miter;stroke-miterlimit:4;stroke-dasharray:none;stroke-opacity:1"
           d="M 335.10714,327.71933 L 325.10554,325.94243 L 324.9394,306.78246 L 335.10714,327.71933 z "
           id="path4182"
           sodipodi:nodetypes="cccc" />
      </g>
      <g
         transform="matrix(0,2.836932,-5.390526,0,2197.005,-483.6711)"
         id="g4184">
        <path
           style="fill:none;fill-rule:evenodd;stroke:black;stroke-width:0.5;stroke-linecap:butt;stroke-linejoin:miter;stroke-miterlimit:4;stroke-dasharray:none;stroke-opacity:1"
           d="M 315,327.36218 L 325,325.93361 L 325,307.04651 L 315,327.36218 z "
           id="path4186"
           sodipodi:nodetypes="cccc" />
        <path
           style="fill:black;fill-opacity:1;fill-rule:evenodd;stroke:none;stroke-width:0.5;stroke-linecap:butt;stroke-linejoin:miter;stroke-miterlimit:4;stroke-dasharray:none;stroke-opacity:1"
           d="M 335.10714,327.71933 L 324.57143,325.75504 L 324.9394,306.78246 L 335.10714,327.71933 z "
           id="path4188"
           sodipodi:nodetypes="cccc" />
      </g>
    </g>
  </g>
</svg>
